src/assets/Imgs/handbook.svg

<svg fill="none" height="24" viewBox="0 0 24 24" width="24" xmlns="http://www.w3.org/2000/svg"><path d="m21.6602 10.4405-.98 4.18c-.84 3.61-2.5 5.07-5.62 4.77-.5-.04-1.04-.13-1.62-.27l-1.68-.4c-4.17002-.99-5.46002-3.05-4.48002-7.23l.98-4.19c.2-.85.44-1.59.74-2.2 1.17002-2.42 3.16002-3.07 6.50002-2.28l1.67.39c4.19.98 5.47 3.05 4.49 7.23z" fill="#00a3ff"/><path d="m15.0603 19.3896c-.62.42-1.4.77-2.35 1.08l-1.58.52c-3.96996 1.28-6.05996.21-7.34996-3.76l-1.28-3.95c-1.28-3.96999-.22-6.06999 3.75-7.34999l1.58-.52c.41-.13.8-.24 1.17-.31-.3.61-.54 1.35-.74 2.2l-.98 4.18999c-.98 4.18.31 6.24 4.47996 7.23l1.68.4c.58.14 1.12.23 1.62.27z" fill="#00b3ff" fill-opacity=".19"/><g fill="#fff"><path d="m17.4904 10.5098c-.06 0-.12-.01-.19-.02l-4.85-1.23002c-.4-.1-.64-.51-.54-.91s.51-.64.91-.54l4.85 1.23c.4.1.64.51.54.91-.08.33002-.39.56002-.72.56002z"/><path d="m14.5601 13.8909c-.06 0-.12-.01-.19-.02l-2.91-.74c-.4-.1-.64-.51-.54-.91s.51-.64.91-.54l2.91.74c.4.1.64.51.54.91-.08.34-.38.56-.72.56z"/></g></svg>

<svg width="24" height="24" viewBox="0 0 24 24" fill="none" xmlns="http://www.w3.org/2000/svg">
<g id="Frame">
<path id="Vector" d="M21.6602 10.4405L20.6802 14.6205C19.8402 18.2305 18.1802 19.6905 15.0602 19.3905C14.5602 19.3505 14.0202 19.2605 13.4402 19.1205L11.7602 18.7205C7.59018 17.7305 6.30018 15.6705 7.28018 11.4905L8.26018 7.3005C8.46018 6.4505 8.70018 5.7105 9.00018 5.1005C10.1702 2.6805 12.1602 2.0305 15.5002 2.8205L17.1702 3.2105C21.3602 4.1905 22.6402 6.2605 21.6602 10.4405Z" fill="#00A3FF"/>
<path id="Vector_2" d="M15.0603 19.3896C14.4403 19.8096 13.6603 20.1596 12.7103 20.4696L11.1303 20.9896C7.16034 22.2696 5.07034 21.1996 3.78034 17.2296L2.50034 13.2796C1.22034 9.30961 2.28034 7.20961 6.25034 5.92961L7.83034 5.40961C8.24034 5.27961 8.63034 5.16961 9.00034 5.09961C8.70034 5.70961 8.46034 6.44961 8.26034 7.29961L7.28034 11.4896C6.30034 15.6696 7.59034 17.7296 11.7603 18.7196L13.4403 19.1196C14.0203 19.2596 14.5603 19.3496 15.0603 19.3896Z" fill="#00B3FF" fill-opacity="0.19"/>
<path id="Vector_3" d="M17.4904 10.5098C17.4304 10.5098 17.3704 10.4998 17.3004 10.4898L12.4504 9.25978C12.0504 9.15978 11.8104 8.74978 11.9104 8.34978C12.0104 7.94978 12.4204 7.70978 12.8204 7.80978L17.6704 9.03978C18.0704 9.13978 18.3104 9.54978 18.2104 9.94978C18.1304 10.2798 17.8204 10.5098 17.4904 10.5098Z" fill="white"/>
<path id="Vector_4" d="M14.5601 13.8909C14.5001 13.8909 14.4401 13.8809 14.3701 13.8709L11.4601 13.1309C11.0601 13.0309 10.8201 12.6209 10.9201 12.2209C11.0201 11.8209 11.4301 11.5809 11.8301 11.6809L14.7401 12.4209C15.1401 12.5209 15.3801 12.9309 15.2801 13.3309C15.2001 13.6709 14.9001 13.8909 14.5601 13.8909Z" fill="white"/>
</g>
</svg>
